TGraphAsymmErrors/2.svg

<svg xmlns="http://www.w3.org/2000/svg" viewBox="0 0 1200 800" preserveAspectRatio="none" width="1200" height="800">
 <defs>
  <pattern id="pat_3001_2" patternUnits="userSpaceOnUse" width="2" height="2">
   <path d="M0,0h1v1h-1zM1,1h1v1h-1z" style="fill: red;"></path>
  </pattern>
 </defs>
 <path d="M0,0H1200V800H0Z" style="fill: white;"></path>
 <g>
  <g transform="translate(120,80)">
   <path d="M0,0H960V640H0Z" style="fill: white; stroke: black; stroke-width: 1;"></path>
   <svg x="0" y="0" overflow="hidden" width="960" height="640" viewBox="0 0 960 640">
    <g>
     <g transform="translate(99,490)">
      <path d="M-19,97H95V-48H-19Z" style="fill: url(#pat_3001_2);"></path>
     </g>
     <g transform="translate(290,296)">
      <path d="M-38,48H76V-97H-38Z" style="fill: url(#pat_3001_2);"></path>
     </g>
     <g transform="translate(480,102)">
      <path d="M-57,97H57V-48H-57Z" style="fill: url(#pat_3001_2);"></path>
     </g>
     <g transform="translate(670,393)">
      <path d="M-76,48H38V-97H-76Z" style="fill: url(#pat_3001_2);"></path>
     </g>
     <g transform="translate(861,199)">
      <path d="M-95,97H19V-48H-95Z" style="fill: url(#pat_3001_2);"></path>
     </g>
    </g>
   </svg>
   <g>
    <g transform="translate(0,640)">
     <path d="M0,0h960M23,-12v12m38,-12v12m38,-24v24m38,-12v12m38,-12v12m38,-12v12m38,-12v12m39,-24v24m38,-12v12m38,-12v12m38,-12v12m38,-12v12m38,-24v24m38,-12v12m38,-12v12m38,-12v12m38,-12v12m38,-24v24m39,-12v12m38,-12v12m38,-12v12m38,-12v12m38,-24v24m38,-12v12m38,-12v12" style="stroke: black; stroke-width: 1;"></path>
     <g font-family="Arial" font-size="28" space="preserve" fill="black" text-anchor="middle">
      <text dy=".8em" transform="translate(99,6)">
       0
      </text>
      <text dy=".8em" transform="translate(290,6)">
       1
      </text>
      <text dy=".8em" transform="translate(480,6)">
       2
      </text>
      <text dy=".8em" transform="translate(670,6)">
       3
      </text>
      <text dy=".8em" transform="translate(861,6)">
       4
      </text>
     </g>
    </g>
    <g>
     <path d="M0,0v640M18,625h-18m18,-19h-18m36,-19h-36m18,-20h-18m18,-19h-18m18,-20h-18m18,-19h-18m36,-19h-36m18,-20h-18m18,-19h-18m18,-19h-18m18,-20h-18m36,-19h-36m18,-20h-18m18,-19h-18m18,-19h-18m18,-20h-18m36,-19h-36m18,-20h-18m18,-19h-18m18,-19h-18m18,-20h-18m36,-19h-36m18,-20h-18m18,-19h-18m18,-19h-18m18,-20h-18m36,-19h-36m18,-20h-18m18,-19h-18m18,-19h-18m18,-20h-18m36,-19h-36" style="stroke: black; stroke-width: 1;"></path>
     <g font-family="Arial" font-size="28" space="preserve" fill="black" text-anchor="end">
      <text dy=".4em" transform="translate(-4,587)">
       -1
      </text>
      <text dy=".4em" transform="translate(-4,490)">
       0
      </text>
      <text dy=".4em" transform="translate(-4,393)">
       1
      </text>
      <text dy=".4em" transform="translate(-4,296)">
       2
      </text>
      <text dy=".4em" transform="translate(-4,199)">
       3
      </text>
      <text dy=".4em" transform="translate(-4,102)">
       4
      </text>
      <text dy=".4em" transform="translate(-4,5)">
       5
      </text>
     </g>
    </g>
   </g>
  </g>
  <g transform="translate(120,4)" font-family="Arial" font-size="40" space="preserve">
   <text fill="black" text-anchor="middle" dy=".8em" transform="translate(480)">
    Graph
   </text>
  </g>
 </g>
</svg>

<svg xmlns="http://www.w3.org/2000/svg" viewBox="0 0 1200 800" preserveAspectRatio="none" width="1200" height="800">
 <defs>
  <pattern id="pat_3001_2" patternUnits="userSpaceOnUse" width="2" height="2">
   <path d="M0,0h1v1h-1zM1,1h1v1h-1z" style="fill: red;"></path>
  </pattern>
 </defs>
 <path d="M0,0H1200V800H0Z" style="fill: white;"></path>
 <g>
  <g transform="translate(120,80)">
   <path d="M0,0H960V640H0Z" style="fill: white; stroke: black; stroke-width: 1;"></path>
   <svg x="0" y="0" overflow="hidden" width="960" height="640" viewBox="0 0 960 640">
    <g>
     <g transform="translate(99,490)">
      <path d="M-19,97H95V-48H-19Z" style="fill: url(#pat_3001_2);"></path>
     </g>
     <g transform="translate(290,296)">
      <path d="M-38,48H76V-97H-38Z" style="fill: url(#pat_3001_2);"></path>
     </g>
     <g transform="translate(480,102)">
      <path d="M-57,97H57V-48H-57Z" style="fill: url(#pat_3001_2);"></path>
     </g>
     <g transform="translate(670,393)">
      <path d="M-76,48H38V-97H-76Z" style="fill: url(#pat_3001_2);"></path>
     </g>
     <g transform="translate(861,199)">
      <path d="M-95,97H19V-48H-95Z" style="fill: url(#pat_3001_2);"></path>
     </g>
    </g>
   </svg>
   <g>
    <g transform="translate(0,640)">
     <path d="M0,0h960M23,-12V0M61,-12V0M99,-24V0M137,-12V0M175,-12V0M213,-12V0M251,-12V0M290,-24V0M328,-12V0M366,-12V0M404,-12V0M442,-12V0M480,-24V0M518,-12V0M556,-12V0M594,-12V0M632,-12V0M670,-24V0M709,-12V0M747,-12V0M785,-12V0M823,-12V0M861,-24V0M899,-12V0M937,-12V0" style="stroke: black; stroke-width: 1;"></path>
     <g font-family="Arial" font-size="28" space="preserve" fill="black" text-anchor="middle">
      <text dy=".8em" transform="translate(99,6)">
       0
      </text>
      <text dy=".8em" transform="translate(290,6)">
       1
      </text>
      <text dy=".8em" transform="translate(480,6)">
       2
      </text>
      <text dy=".8em" transform="translate(670,6)">
       3
      </text>
      <text dy=".8em" transform="translate(861,6)">
       4
      </text>
     </g>
    </g>
    <g>
     <path d="M0,0v640M18,625H0M18,606H0M36,587H0M18,567H0M18,548H0M18,528H0M18,509H0M36,490H0M18,470H0M18,451H0M18,432H0M18,412H0M36,393H0M18,373H0M18,354H0M18,335H0M18,315H0M36,296H0M18,276H0M18,257H0M18,238H0M18,218H0M36,199H0M18,179H0M18,160H0M18,141H0M18,121H0M36,102H0M18,82H0M18,63H0M18,44H0M18,24H0M36,5H0" style="stroke: black; stroke-width: 1;"></path>
     <g font-family="Arial" font-size="28" space="preserve" fill="black" text-anchor="end">
      <text dy=".4em" transform="translate(-4,587)">
       -1
      </text>
      <text dy=".4em" transform="translate(-4,490)">
       0
      </text>
      <text dy=".4em" transform="translate(-4,393)">
       1
      </text>
      <text dy=".4em" transform="translate(-4,296)">
       2
      </text>
      <text dy=".4em" transform="translate(-4,199)">
       3
      </text>
      <text dy=".4em" transform="translate(-4,102)">
       4
      </text>
      <text dy=".4em" transform="translate(-4,5)">
       5
      </text>
     </g>
    </g>
   </g>
  </g>
  <g transform="translate(120,4)" font-family="Arial" font-size="40" space="preserve">
   <text fill="black" text-anchor="middle" dy=".8em" transform="translate(480)">
    Graph
   </text>
  </g>
 </g>
</svg>
